X:1
T:The Road To Ballymac x2
L:1/8
Q:1/4=180
M:4/4
K:D
|:"G"!mf! B2 z2 d2 z2 | .d3 (g"C" ag) e z |"G" d2 z2"C" z4 |"G" z8"D7" |"G"!mf! B2 z2 d2 z2 |"G" .d3 (g"C" ag) e z |"C/D"ee z2 z2 ee |1"D" z4 d4 :|2"D" z4"G" d4 |:"G" B2 .B2"Em" z B3 |"C" .c2 z d-"D7" d4 |"G" B2 .B2"Am" z c3 |"C" .e2 z f-"D7" f4 |"G"B2 .B2"Em" z B3 |"C" .c2 z d-"D7" d4 |"G" .d2 z e-"C" (e2 d2) |1"D7" .c2 z2"G" B4 :|2"D7" .c2 z2"G" B4 |:"D" z2 A2- A2 .A2 |"A"z2 c2- c2 .c2 |"Bm" z2 F2- F2 .F2 |"F#m" z2 A2- A2 .A2 |"G" z2 d2- d2 .d2 |"D" z2 F2- F2 .F2 |"G" z4 G2 F2 |1"A7".e2 z2"A" c4 :|2"A" z8"D" |:"D" z2 A2 z2 A2 |"A" z2 A2 z2 A2 |"Bm" z2 F2 z2 F2 |"F#m" z2 F2 z2 F2 |"G" z2 G2 z2 G2 |"D"z2 F2 z2 F2 |"G" z2 G2 z2 G2 |1"A7" z2 G2"A" z2 A2 :|2"A" z2 A2"D" A4 ||"A" z2 .A2 z4 |"D" !fermata!A8 |
